X: 764
T: Fikrimden Geceler Yatabilmirem
C: (Anonim)
O: Turkey
F: http://compmusic.upf.edu/node/140
N: buselik--turku--semai--fikrimden_geceler--
N: makam= buselik
N: form= turku
N: usul= semai = 3/4
M: 3/4
L: 1/16
K: C    
Q: 1/4=132
%%MIDI tuningsystem comma53
e2d2 c8  | c4 B4 c4  | d2c2 B8  | B3d c2B2 A4  | \
w:  ARANAĞME  |   |   |   | 
B4 c6B2  | {c}B4 A6^G2  | A12  | 
w:   |   |   | 
A2B2 c2d2 e4  | e2d2 c8  | c4 B4 c4  | d2c2 B8  | \
w:   |  ARANAĞME  |   |   | 
B3d c2B2 A4  | B4 c6B2  | 
w:   |   | 
{c}B4 A6^G2  | A12  | A4 B4 ^c4  | d12  | d4 c4 e4  | d12  | \
w:   |   |   |   |   |   | 
c4 d4 z4  | B4 c8  | {d}c2B2 A4 ^G2A2  | 
w:   |   |   | 
B12  | E2F2 ^G2A2 B2c2  | e2d2 c8  | c4 B4 c4  | \
w:   |   |   |   | 
d3c B8  | B3d c2B2 A4  | 
w:   |   | 
B4 c6B2  | B4 A4 ^G4  | A12  | A2B2 c2d2 e4  | \
w:   |   |   |   | 
e2d2 c8  | c4 B4 c4  | d3c B8  | 
w:   |   |   | 
B3d c2B2 A4  | B4 c6B2  | B4 A4 ^G4  | A12  | \
w:   |   |   |   | 
^G4 F4 E4  | A12  | A4 c2B2 A4  | A12  | 
w:   |  Fik  |  *  rim *  den   |  ge  | 
{B}A2^G2 F6z2  | ^G4 A8  | A4 c2B2 A2^GA  | \
w:  *  ce *  ler   |  ya ta  |  *  bil *  *  mi  | 
A4 B8  | E3F ^G2.A2 B2c2  | c12  | 
w:  *  rem    |  SAZ  |  Bu   | 
c4 c2B2 A4  | {.A}B12  | A2^G2 F8  | A4 B8  | \
w:  *  fik *  ri   |  *  ba  |  şım *  dan   |  a ta  | 
B4 F4 ^G4  | A12  | ^G4 F4 E4  | A12  | A4 c2B2 A4  | 
w:  *  bil mi  |  rem    |  SAZ  |  Fik  |  *  rim *  den   | 
A12  | {B}A2^G2 F6z2  | ^G4 A8  | A4 c2B2 A2^GA  | \
w:  ge  |  *  ce *  ler   |  ya ta  |  *  bil *  *  mi  | 
A4 B8  | E3F ^G2.A2 B2c2  | 
w:  *  rem    |  SAZ  | 
c12  | c4 c2B2 A4  | {.A}B12  | A2^G2 F8  | \
w:  Bu   |  *  fik *  ri   |  *  ba  |  şım *  dan   | 
A4 B8  | B4 F4 ^G4  | A12  | z2^G2 A2B2 c4  | c12  | 
w:  a ta  |  *  bil mi  |  rem    |  SAZ  |  Ney  | 
c4 d2c2 B2c2  | d12  | {c}c2c2 e4 z4  | \
w:  *  le *  *  yim   |  ki   |  *  sa na   | 
d4 e4 f4  | e2d2 {e}d2c2 {d}c2B2  | {c}c12  | c12  | 
w:  ça ta  |  bil *  *  *  *  *  mi  |  *  rem    |   | 
c12  | c4 d2c2 B2c2  | d8-d2c2  | c4 e8  | \
w:  SAZ  |   |   |   | 
d4 e4 f4  | e2d2 {e}d2c2 {d}c2B2  | {c}c12  | 
w:   |   |   | 
c2BA GFED C4  | c12  | c4 d2c2 B2c2  | d8-d2c2  | \
w:   |  Ney  |  *  *  *  le yim   |  ki   | 
c4 e8  | d4 e4 f4  | 
w:  sa na   |  ça ta bil  | 
e2d2 {e}d2c2 {d}c2B2  | {c}c12  | c4 (3B2B2B2 c4  | d12  | \
w:  *  *  *  *  *  *  mi  |  *  rem    |  SAZ  |  Ay  | 
d4 c2c2 e4  | d12  | {c}c2c2 d6z2  | 
w:  *  rı lık   |  ay  |  *  rı lık   | 
B4 c8  | c2{d}B2 {c}A4 ^G2A2  | B12  | E3F G2A2 B2c2  | \
w:  a man   |  ay *  *  *  *  rı  |  lık    |  SAZ  | 
e2d2 c8  | z4 B4 c4  | {c}d2c2 B8  | 
w:  Her  *  bir   |  dert ten   |  *  â *  lâ   | 
B3d c2B2 A4  | B4 c4 B4  | B4 A4 A2^G2  | A12  | \
w:   |  ya man   |  ay *  rı  |  lık    | 
z2A2 B2c2 d4  | d12  | d4 c2c2 e4  | 
w:  SAZ  |  Ay  |  *  rı lık   | 
d12  | {c}c2c2 d6z2  | B4 c8  | c2{d}B2 {c}A4 ^G2A2  | B12  | \
w:  ay  |  *  rı lık   |  a man   |  ay *  *  *  *  rı  |  lık    | 
E3F G2A2 B2c2  | e2d2 c8  | 
w:  SAZ  |  Her  *  bir   | 
z4 B4 c4  | {c}d2c2 B8  | B3d c2B2 A4  | \
w:  dert ten   |  *  â *  lâ   |   | 
B4 c4 B4  | B4 A4 A2^G2  | A12  | ^c12  | ^c4 d4 c2d2  | 
w:  ya man   |  ay *  rı  |  lık    |  SAZ  |   | 
e12  | e4 f2e2 d4  | e4 ^g8  | f4 e4 d4  | e12  | e12  | ^c12  | \
w:   |   |   |   |   |   |   | 
^c4 d4 c2d2  | e12  | e4 f2e2 d4  | 
w:   |   |   | 
e4 ^g8  | e2f2 e4 d4  | ^c12  | ^c12  | d12  | \
w:   |   |   |   |   | 
d4 c2c2 e4  | d12  | {c}c2c2 d6z2  | B4 c8  | \
w:   |   |   |   | 
c2{d}B2 {c}A4 ^G2A2  | 
w:   | 
B12  | E3F G2A2 B2c2  | e2d2 c8  | z4 B4 c4  | \
w:   |   |   |   | 
{c}d2c2 B8  | B3d c2B2 A4  | 
w:   |   | 
B4 c4 B4  | B4 A4 A2^G2  | A12  | A12  | A4 c2B2 A4  | A12  | \
w:   |   |   |  Fik  |  *  rim *  den   |  ge  | 
{B}A2^G2 F6z2  | ^G4 A8  | A4 c2B2 A2^GA  | 
w:  *  ce *  ler   |  ya ta  |  *  bil *  *  mi  | 
A4 B8  | E3F ^G2.A2 B2c2  | c12  | c4 c2B2 A4  | \
w:  *  rem    |  SAZ  |  Bu   |  *  fik *  ri   | 
{.A}B12  | A2^G2 F8  | A4 B8  | B4 F4 ^G4  | 
w:  *  ba  |  şım *  dan   |  a ta  |  *  bil mi  | 
A12  | ^G4 F4 E4  | A12  | A4 c2B2 A4  | A12  | \
w:  rem    |  SAZ  |  Fik  |  *  rim *  den   |  ge  | 
{B}A2^G2 F6z2  | ^G4 A8  | A4 c2B2 A2^GA  | 
w:  *  ce *  ler   |  ya ta  |  *  bil *  *  mi  | 
A4 B8  | E3F ^G2.A2 B2c2  | c12  | c4 c2B2 A4  | \
w:  *  rem    |  SAZ  |  Bu   |  *  fik *  ri   | 
{.A}B12  | A2^G2 F8  | A4 B8  | B4 F4 ^G4  | 
w:  *  ba  |  şım *  dan   |  a ta  |  *  bil mi  | 
A12  | z2^G2 A2B2 c4  | c12  | c4 d2c2 B2c2  | d12  | \
w:  rem    |  SAZ  |  Ney  |  *  le *  *  yim   |  ki   | 
{c}c2c2 e4 z4  | d4 e4 f4  | e2d2 {e}d2c2 {d}c2B2  | 
w:  *  sa na   |  ça ta  |  bil *  *  *  *  *  mi  | 
{c}c12  | c12  | c12  | c4 d2c2 B2c2  | d8-d2c2  | \
w:  *  rem    |   |  SAZ  |   |   | 
c4 e8  | d4 e4 f4  | e2d2 {e}d2c2 {d}c2B2  | 
w:   |   |   | 
{c}c12  | c2BA GFED C4  | c12  | c4 d2c2 B2c2  | \
w:   |   |  Ney  |  *  *  *  le yim   | 
d8-d2c2  | c4 e8  | d4 e4 f4  | 
w:  ki   |  sa na   |  ça ta bil  | 
e2d2 {e}d2c2 {d}c2B2  | {c}c12  | c4 (3B2B2B2 c4  | d12  | \
w:  *  *  *  *  *  *  mi  |  *  rem    |  SAZ  |  Ay  | 
d4 c2c2 e4  | d12  | {c}c2c2 d6z2  | 
w:  *  rı lık   |  ay  |  *  rı lık   | 
B4 c8  | c2{d}B2 {c}A4 ^G2A2  | B12  | E3F G2A2 B2c2  | \
w:  a man   |  ay *  *  *  *  rı  |  lık    |  SAZ  | 
e2d2 c8  | z4 B4 c4  | {c}d2c2 B8  | 
w:  Her  *  bir   |  dert ten   |  *  â *  lâ   | 
B3d c2B2 A4  | B4 c4 B4  | B4 A4 A2^G2  | A12  | |


